public/static/img/assets/order.svg

<svg xmlns="http://www.w3.org/2000/svg" width="16" height="16" viewBox="0 0 16 16" fill="none">
  <path d="M12.6666 14.6668H3.33331C2.22875 14.6668 1.33331 13.7714 1.33331 12.6668V2.00016C1.33331 1.63198 1.63179 1.3335 1.99998 1.3335H11.3333C11.7015 1.3335 12 1.63198 12 2.00016V10.0002H14.6666V12.6668C14.6666 13.7714 13.7712 14.6668 12.6666 14.6668ZM12 11.3335V12.6668C12 13.035 12.2984 13.3335 12.6666 13.3335C13.0348 13.3335 13.3333 13.035 13.3333 12.6668V11.3335H12ZM3.99998 4.66683V6.00016H9.33331V4.66683H3.99998ZM3.99998 7.3335V8.66683H9.33331V7.3335H3.99998ZM3.99998 10.0002V11.3335H7.33331V10.0002H3.99998Z" fill="white"/>
</svg>

<svg xmlns="http://www.w3.org/2000/svg" width="16" height="16" fill="none"><path d="M12.667 14.667H3.333a2 2 0 0 1-2-2V2c0-.368.299-.667.667-.667h9.333c.368 0 .667.299.667.667v8h2.667v2.667a2 2 0 0 1-2 2ZM12 11.334v1.333a.667.667 0 1 0 1.333 0v-1.333H12ZM4 4.667V6h5.333V4.667H4Zm0 2.667v1.333h5.333V7.334H4ZM4 10v1.334h3.333V10H4Z" fill="#fff"/></svg>
